!!!OTL: Rudolph the Red Nosed Reindeer
!!!COM: Marks, Johnny
!!!ODT: 1949
!!!YOR: The Christmas Fake Book
!!!YOY: 1990
!!!AST: Christmas song
!!!YEC: Brian Luke, 2001
**kern	**harm
*k[]	*k[]
*M4/4	*M4/4
*C:	*C:
*>A	*>A
=1	=1
8g	I
4a	.
8g	.
4e	.
4cc	.
=2	=2
4a	.
2.g	.
=3	=3
8g	.
8a	.
8g	.
8a	.
4g	.
4cc	viio/V
=4	=4
1b	V7
=5	=5
8f	.
4g	.
8f	.
4d	.
4b	.
=6	=6
4a	.
2.g	.
=7	=7
8g	.
8a	.
8g	.
8a	.
4g	V7+
4a	.
=8	=8
1e	I;
*>A'	*>A'
=9	=9
8g	I
4a	.
8g	.
4e	.
4cc	.
=10	=10
4a	.
2.g	.
=11	=11
8g	.
8a	.
8g	.
8a	.
4g	.
4cc	viio/V
=12	=12
1b	V7
=13	=13
8f	.
4g	.
8f	.
4d	.
4b	.
=14	=14
4a	.
2.g	.
=15	=15
8g	.
8a	.
8g	.
8a	.
4g	.
4dd	.
=16	=16
1cc	I;
.	V7/IV
*>B	*>B
=17	=17
4a	IV
4a	.
4cc	.
4a	.
=18	=18
4g	I
4e	.
2g	.
=19	=19
4f	ii7
4a	.
4g	V7
4f	.
=20	=20
1e	I
=21	=21
4d	Vc
4e	.
4g	.
4a	.
=22	=22
4b	.
4b	.
2b	V7/vi
=23	=23
4cc	vi
4cc	.
4b	V7/V
4a	.
=24	=24
4g	V7;
4f	.
2d	.
*>A'	*>A'
=25	=25
8g	I
4a	.
8g	.
4e	.
4cc	.
=26	=26
4a	.
2.g	.
=27	=27
8g	.
8a	.
8g	.
8a	.
4g	.
4cc	viio/V
=28	=28
1b	V7
=29	=29
8f	.
4g	.
8f	.
4d	.
4b	.
=30	=30
4a	.
2.g	.
=31	=31
8g	.
8a	.
8g	.
8a	.
4g	.
4dd	.
=32	=32
1cc	I;
*-	*-
